images/star-bold.svg

<svg width="46" height="46" viewBox="0 0 46 46" fill="none" xmlns="http://www.w3.org/2000/svg">
<path d="M12.4618 27.5529C15.409 28.2898 17.7102 30.591 18.4471 33.5382L21.2139 44.6054C21.4188 45.425 22.1552 46 23 46C23.8448 46 24.5812 45.425 24.7861 44.6054L27.5529 33.5382C28.2898 30.591 30.591 28.2898 33.5382 27.5529L44.6054 24.7861C45.425 24.5812 46 23.8448 46 23C46 22.1552 45.425 21.4188 44.6054 21.2139L33.5382 18.4471C30.591 17.7102 28.2898 15.409 27.5529 12.4618L24.7861 1.39458C24.5812 0.574976 23.8448 0 23 0C22.1552 0 21.4188 0.574975 21.2139 1.39458L18.4471 12.4618C17.7102 15.409 15.409 17.7102 12.4618 18.4471L1.39458 21.2139C0.574976 21.4188 0 22.1552 0 23C0 23.8448 0.574975 24.5812 1.39458 24.7861L12.4618 27.5529Z" fill="#F7F6FF"/>
</svg>

<svg xmlns="http://www.w3.org/2000/svg" width="46" height="46" fill="none"><path fill="#F7F6FF" d="M12.462 27.553a8.226 8.226 0 0 1 5.985 5.985l2.767 11.067a1.841 1.841 0 0 0 3.572 0l2.767-11.067a8.226 8.226 0 0 1 5.985-5.985l11.067-2.767a1.841 1.841 0 0 0 0-3.572l-11.067-2.767a8.226 8.226 0 0 1-5.985-5.985L24.786 1.395a1.841 1.841 0 0 0-3.572 0l-2.767 11.067a8.226 8.226 0 0 1-5.985 5.985L1.395 21.214a1.841 1.841 0 0 0 0 3.572l11.067 2.767Z"/></svg>
